fs/cloud_arrow_up_16_regular.svg

<svg viewBox="0 0 16 16" fill="none" xmlns="http://www.w3.org/2000/svg" height="1em" width="1em">
  <path d="M5.69948 4.00412C5.21925 4.59106 5 5.35003 5 6C5 6.27614 4.77614 6.5 4.5 6.5C2.68817 6.5 2 7.76416 2 8.5C2 8.92738 2.10804 9.41775 2.43879 9.79575C2.75761 10.1601 3.35374 10.5 4.5 10.5H5C5 10.8415 5.03112 11.1757 5.09069 11.5H4.5C3.14626 11.5 2.24239 11.0899 1.68621 10.4543C1.14196 9.83225 1 9.07262 1 8.5C1 7.3222 1.96544 5.73497 4.02844 5.5236C4.11434 4.79571 4.39818 4.01541 4.92552 3.37088C5.58306 2.56722 6.60015 2 8 2C8.85003 2 9.84106 2.28075 10.6291 2.92552C11.2682 3.44844 11.7578 4.19876 11.9315 5.18814C11.588 5.0958 11.2313 5.0359 10.8647 5.0119C10.6937 4.43747 10.3753 4.00993 9.99588 3.69948C9.40894 3.21925 8.64997 3 8 3C6.89985 3 6.16694 3.43278 5.69948 4.00412ZM15 10.5C15 12.9853 12.9853 15 10.5 15C8.01472 15 6 12.9853 6 10.5C6 8.01472 8.01472 6 10.5 6C12.9853 6 15 8.01472 15 10.5ZM10.854 8.14684L10.8514 8.14433C10.804 8.09744 10.7495 8.06198 10.6914 8.03794C10.6333 8.01385 10.5697 8.0004 10.503 8.00001L10.5 8L10.497 8.00001C10.4303 8.0004 10.3667 8.01385 10.3086 8.03794C10.2496 8.06234 10.1944 8.09851 10.1464 8.14645L8.14645 10.1464C7.95118 10.3417 7.95118 10.6583 8.14645 10.8536C8.34171 11.0488 8.65829 11.0488 8.85355 10.8536L10 9.70711V12.5C10 12.7761 10.2239 13 10.5 13C10.7761 13 11 12.7761 11 12.5V9.70711L12.1464 10.8536C12.3417 11.0488 12.6583 11.0488 12.8536 10.8536C13.0488 10.6583 13.0488 10.3417 12.8536 10.1464L10.854 8.14684Z" fill="#212121"/>
</svg>

<svg viewBox="0 0 16 16" fill="none" xmlns="http://www.w3.org/2000/svg" height="1em" width="1em">
  <path d="M5.7 4.004A3.23 3.23 0 0 0 5 6a.5.5 0 0 1-.5.5C2.688 6.5 2 7.764 2 8.5c0 .427.108.918.439 1.296.319.364.915.704 2.061.704H5c0 .341.031.676.09 1H4.5c-1.354 0-2.258-.41-2.814-1.046C1.142 9.832 1 9.073 1 8.5c0-1.178.965-2.765 3.028-2.976a4.2 4.2 0 0 1 .898-2.153C5.583 2.567 6.6 2 8 2c.85 0 1.841.28 2.63.926.638.522 1.128 1.273 1.301 2.262a5.487 5.487 0 0 0-1.066-.176 2.638 2.638 0 0 0-.87-1.313A3.23 3.23 0 0 0 8 3c-1.1 0-1.833.433-2.3 1.004ZM15 10.5a4.5 4.5 0 1 1-9 0 4.5 4.5 0 0 1 9 0Zm-4.146-2.353-.003-.003A.498.498 0 0 0 10.503 8h-.006a.498.498 0 0 0-.35.146l-2 2a.5.5 0 0 0 .707.708L10 9.707V12.5a.5.5 0 0 0 1 0V9.707l1.146 1.147a.5.5 0 0 0 .708-.708l-2-2Z" fill="#212121"/>
</svg>
